icons/line/analytics.svg

<svg width="24" height="24" viewBox="0 0 24 24" fill="none" xmlns="http://www.w3.org/2000/svg">
<path d="M8 16V11M12 16L12 8M16 16V14M4 18L4 6C4 4.89543 4.89543 4 6 4L18 4C19.1046 4 20 4.89543 20 6V18C20 19.1046 19.1046 20 18 20L6 20C4.89543 20 4 19.1046 4 18Z" stroke="currentColor" stroke-width="2" stroke-linecap="round" stroke-linejoin="round"/>
</svg>

<svg width="24" height="24" fill="none" xmlns="http://www.w3.org/2000/svg"><path d="M8 16v-5m4 5V8m4 8v-2M4 18V6a2 2 0 012-2h12a2 2 0 012 2v12a2 2 0 01-2 2H6a2 2 0 01-2-2z" stroke="currentColor" stroke-width="2" stroke-linecap="round" stroke-linejoin="round"/></svg>
